src/icon/action/logout/icon_logout_s_white.svg

<svg width="18" height="18" viewBox="0 0 18 18" xmlns="http://www.w3.org/2000/svg"><g fill-rule="nonzero" fill-opacity=".9" fill="#FFF"><path d="M13.396 5.854L15.543 8H6v1h9.543l-2.147 2.146.708.708L17.457 8.5l-3.353-3.354z"/><path d="M1 15.5c0 .827.673 1.5 1.5 1.5h7c.827 0 1.5-.673 1.5-1.5V11h-1v4.5a.5.5 0 0 1-.5.5h-7a.5.5 0 0 1-.5-.5v-13a.5.5 0 0 1 .5-.5h7a.5.5 0 0 1 .5.5V6h1V2.5c0-.827-.673-1.5-1.5-1.5h-7C1.673 1 1 1.673 1 2.5v13z"/></g></svg>

<svg width="18px" height="18px" viewBox="0 0 18 18" version="1.1" xmlns="http://www.w3.org/2000/svg"><g fill-rule="nonzero" stroke="none" stroke-width="1" fill="none"><rect fill="#D8D8D8" opacity="0" x="0" y="0" width="18" height="18"/><polygon fill-opacity="0.9" fill="#FFFFFF" points="13.396 5.854 15.543 8 6 8 6 9 15.543 9 13.396 11.146 14.104 11.854 17.457 8.5 14.104 5.146"/><path d="M1,15.5 C1,16.327 1.673,17 2.5,17 L9.5,17 C10.327,17 11,16.327 11,15.5 L11,11 L10,11 L10,15.5 C10,15.7761424 9.77614237,16 9.5,16 L2.5,16 C2.22385763,16 2,15.7761424 2,15.5 L2,2.5 C2,2.22385763 2.22385763,2 2.5,2 L9.5,2 C9.77614237,2 10,2.22385763 10,2.5 L10,6 L11,6 L11,2.5 C11,1.673 10.327,1 9.5,1 L2.5,1 C1.673,1 1,1.673 1,2.5 L1,15.5 Z" fill-opacity="0.9" fill="#FFFFFF"/></g></svg>
